X:1
T:Title
%%score { 1 | 2 }
L:1/8
Q:1/4=100
M:6/8
K:F
V:1 treble nm="Grand Piano"
V:2 bass 
V:1
 A2 c c2 A | [EA]2 G F3 | AA>A dcA | [EG]6 | A2 c c2 A | [EA]2 [CG] [CF]3 | %6
w: George~D.~Elderkin * * *||||||
 [FA][FA][CF] [EG]>[EG]G |[M:5/8] F-F- F3 |[M:3/16] c3/2 |[M:3/4] Ac c c3 | Ac c c3 | %11
w: |||||
 Ac- c/c/d cA | AG G [EG]3 | Ac- c/c/c AF | [DG][DF] [B,D] [DF]3 | %15
w: ||||
 [FA][FA]- [FA]/[CF]/[EG] [EG]>G | F6 |] %17
w: ||
V:2
 [F,CF]2 [F,A,F] [F,A,F]2 [F,CF] | [C,C]2 [C,B,C] [F,A,C]3 | %2
 [F,CF][F,CF]>[F,CF] [F,B,F][F,A,F][F,CF] | [C,C]6 | [F,CF]2 [F,A,F] [F,A,F]2 [F,CF] | %5
 [C,C]2 [C,B,] [F,A,]3 | [C,C][C,C][C,A,] [C,B,]>[C,B,][C,B,C] |[M:5/8] [F,A,C]-[F,A,C]- [F,A,C]3 | %8
[M:3/16][K:treble] [F,A,F]3/2 |[M:3/4] [F,CF][F,A,F] [F,A,F] [F,A,F]3 | %10
 [F,CF][F,A,F] [F,A,F] [F,A,F]3 | [F,CF][F,A,F]- [F,A,F]/[F,A,F]/[F,B,F] [F,A,F][F,CF] | %12
 [G,F][G,=B,D] [G,DF][K:bass] [C,C]3 | [F,CF][F,A,F]- [F,A,F]/[F,A,F]/[F,A,F] [F,CF][F,A,C] | %14
 [B,,B,][B,,B,] [B,,F,] [B,,B,]3 | [C,C][C,C]- [C,C]/[C,A,]/[C,B,] [C,B,]>[C,B,C] | [F,A,C]6 |] %17

